X: 1
P: Mouth of the Tobique
C: based on Rodney Miller, Fiddler's Fake Book, Yankee Ingenuity
C: Arr. T. Traub 8-25-2004
R: reel
M: 4/4
K: G
L: 1/8
(3DEF|"G"GFGA Bded |BdBG DGBG|"D"AGFE DEAc|"G"BdBG "D"D2 (3DEF|"G"GFGA Bded |
BdBG DGBG|"D"AGFE DFAc|"G"B2 G2 G2 :||: ef|"G"gfga gfeg|"D"fdAd fagf|"C"eGFE "D"DFAF|
"G"GABc "D"d2 ef|"Em"gfga gfeg|"D"fdAd fagf|"C"eGFE "D"DFAc|"G"B2 G2 G2 :|
